icons/themes/default/document-text.svg

<svg viewBox="0 0 16 16" fill="none" xmlns="http://www.w3.org/2000/svg">
<path fill-rule="evenodd" clip-rule="evenodd" d="M2.94995 3.34006C2.94995 2.8238 3.07868 2.52844 3.2485 2.35861C3.41833 2.18879 3.71369 2.06006 4.22995 2.06006H11.79C12.3062 2.06006 12.6016 2.18879 12.7714 2.35861C12.9412 2.52844 13.07 2.8238 13.07 3.34006V12.6801C13.07 13.1963 12.9412 13.4917 12.7714 13.6615C12.6016 13.8313 12.3062 13.9601 11.79 13.9601H4.22995C3.71369 13.9601 3.41833 13.8313 3.2485 13.6615C3.07868 13.4917 2.94995 13.1963 2.94995 12.6801V3.34006ZM4.22995 1.06006C3.55955 1.06006 2.9649 1.228 2.5414 1.65151C2.11789 2.07501 1.94995 2.66965 1.94995 3.34006V12.6801C1.94995 13.3505 2.11789 13.9451 2.5414 14.3686C2.9649 14.7921 3.55955 14.9601 4.22995 14.9601H11.79C12.4604 14.9601 13.055 14.7921 13.4785 14.3686C13.902 13.9451 14.07 13.3505 14.07 12.6801V3.34006C14.07 2.66965 13.902 2.07501 13.4785 1.65151C13.055 1.228 12.4604 1.06006 11.79 1.06006H4.22995ZM9.11993 5.06006C8.84379 5.06006 8.61993 5.28392 8.61993 5.56006C8.61993 5.8362 8.84379 6.06006 9.11993 6.06006H10.8999C11.1761 6.06006 11.3999 5.8362 11.3999 5.56006C11.3999 5.28392 11.1761 5.06006 10.8999 5.06006H9.11993ZM5.11993 7.73006C4.84379 7.73006 4.61993 7.95391 4.61993 8.23006C4.61993 8.5062 4.84379 8.73006 5.11993 8.73006H10.8999C11.1761 8.73006 11.3999 8.5062 11.3999 8.23006C11.3999 7.95391 11.1761 7.73006 10.8999 7.73006H5.11993ZM4.61993 10.9001C4.61993 10.6239 4.84379 10.4001 5.11993 10.4001H10.8999C11.1761 10.4001 11.3999 10.6239 11.3999 10.9001C11.3999 11.1762 11.1761 11.4001 10.8999 11.4001H5.11993C4.84379 11.4001 4.61993 11.1762 4.61993 10.9001ZM5.11993 3.73006C4.84379 3.73006 4.61993 3.95392 4.61993 4.23006V5.56006C4.61993 5.83621 4.84379 6.06006 5.11993 6.06006H6.44993C6.72608 6.06006 6.94993 5.83621 6.94993 5.56006V4.23006C6.94993 3.95392 6.72608 3.73006 6.44993 3.73006H5.11993Z" fill="currentColor" />
</svg>

<svg xmlns="http://www.w3.org/2000/svg" fill="none" viewBox="0 0 16 16">
  <path fill="currentColor" fill-rule="evenodd" d="M2.95 3.34c0-.516.129-.812.298-.981.17-.17.466-.299.982-.299h7.56c.516 0 .812.129.981.299.17.17.299.465.299.981v9.34c0 .516-.129.812-.299.982-.17.17-.465.298-.981.298H4.23c-.516 0-.812-.129-.982-.299-.17-.17-.298-.465-.298-.98V3.34Zm1.28-2.28c-.67 0-1.265.168-1.689.592-.423.423-.591 1.018-.591 1.688v9.34c0 .67.168 1.265.591 1.689.424.423 1.019.591 1.689.591h7.56c.67 0 1.265-.168 1.689-.591.423-.424.591-1.018.591-1.689V3.34c0-.67-.168-1.265-.591-1.688-.424-.424-1.019-.592-1.689-.592H4.23Zm4.89 4a.5.5 0 0 0 0 1h1.78a.5.5 0 1 0 0-1H9.12Zm-4 2.67a.5.5 0 1 0 0 1h5.78a.5.5 0 1 0 0-1H5.12Zm-.5 3.17a.5.5 0 0 1 .5-.5h5.78a.5.5 0 1 1 0 1H5.12a.5.5 0 0 1-.5-.5Zm.5-7.17a.5.5 0 0 0-.5.5v1.33a.5.5 0 0 0 .5.5h1.33a.5.5 0 0 0 .5-.5V4.23a.5.5 0 0 0-.5-.5H5.12Z" clip-rule="evenodd"/>
</svg>
